!!!!SEGMENT: pl-kk--kk-i-7--036-006_pekiel-bartlomiej--missa-agnus-dei.krn
!!!cenid: 16xx:835
!!!COM: Pękiel, Bartłomiej
!!!COM-rismID: pe30105642
!!!CDT: <1633-~1670
!!!CNT: Polish
!!!OPR: Missa
!!!OTL: Agnus Dei
!!!OMV: 006
!!!PDT: 1669
!!!AGN: Sacred; Mass
!!!YEC: Copyright 2022 Narodowy Instytut Fryderyka Chopina (https://polishscores.org)
!!!YEM: License CC-BY-4.0 (https://creativecommons.org/licenses/by/4.0)
!!!SMS-siglum: PL-Kk
!!!SMS-shelfmark: Kk.I.7
!!!SMS-shelfwork: 036-006 M
!!!SMS-variant:
!!!SMS-altvar:
!!!NIFC-rismSourceID: 300258077
!!!NIFC-rismChildID: 300258113
!!!NIFC-islandoraID: pl-kk:1956
!!!URL-pdf-islandora: https://repozytorium.nifc.pl/islandora/object/pl-kk%3A1956/datastream/PDF/view
!!!URL-scan: https://polish.musicsources.pl/pl/lokalizacje/galeria/rekopisy/6140 @EN{Scan on Polish Music Sources Website} @PL{Skany w portalu Dziedzictwo Muzyki Polskiej w otwartym dostępie}
!!!IIIF: https://repozytorium.nifc.pl/islandora/object/pl-kk%3A1956/datastream/IIIF/view
!!!ONB-nifc: UWAGA: C (skan 0027-0032, s.49-58), A (0114-0118, s.48-57), T(0188-0193, s.41-50), B(0280-0285, s.49-57). Części Mszy: 1. Kyrie, 2. Et in terra, 3. Patrem,. 4. Sanctus, 5. Benedictus, 6. Agnus Dei
!!!AIN: 1 alto 1 bass 1 soprn 1 tenor
!!!key: d
**kern	**text	**mod-text	**kern	**text	**mod-text	**kern	**text	**mod-text	**kern	**text	**mod-text
*group1	*	*	*group1	*	*	*group1	*	*	*group1	*	*
*part4	*	*	*part3	*	*	*part2	*	*	*part1	*	*
*staff4	*	*	*staff3	*	*	*staff2	*	*	*staff1	*	*
*Ibass	*	*	*Itenor	*	*	*Ialto	*	*	*Isoprn	*	*
*I"BASSVS.	*	*	*I"TENOR.	*	*	*I"ALTVS.	*	*	*I"CANTVS.	*	*
*I'B	*	*	*I'T	*	*	*I'A	*	*	*I'S	*	*
*ICvox	*	*	*ICvox	*	*	*ICvox	*	*	*ICvox	*	*
*mI"Basso	*	*	*mI"Alto	*	*	*mI"Tenore II	*	*	*mI"Tenore I	*	*
*mI'B	*	*	*mI'A	*	*	*mI'T 2	*	*	*mI'T 1	*	*
*clefF4	*	*	*clefC1	*	*	*clefC4	*	*	*clefC3	*	*
*	*	*	*mclefG2	*	*	*mclefGv2	*	*	*mclefGv2	*	*
*k[]	*	*	*k[]	*	*	*k[]	*	*	*k[]	*	*
*d:	*	*	*d:	*	*	*d:	*	*	*d:	*	*
*M2/1	*	*	*M2/1	*	*	*M2/1	*	*	*M2/1	*	*
*met(c|)	*	*	*met(c|)	*	*	*met(c|)	*	*	*met(c|)	*	*
*mmet(c|)	*	*	*mmet(c|)	*	*	*mmet(c|)	*	*	*mmet(c|)	*	*
=1-	=1-	=1-	=1-	=1-	=1-	=1-	=1-	=1-	=1-	=1-	=1-
!	!	!	!LO:TX:t=P:problem=pozostałe utwory w książce tenoru zapisane w kluczu F4, tutaj zaburzenie	!	!	!	!	!	!LO:TX:t=Imum:mod=	!	!
!LO:TX:t=Imum.:mod=	!	!	!	!	!	!LO:TX:t=Imum:mod=	!	!	!LO:TX:A:t=P:all\right:GLOBAL:problem	!	!
*xywh-#285:1357,2959,5747,838	*	*	*xywh-#192:7131,1244,6306,853	*	*	*xywh-#118:823,1899,6458,771	*	*	*xywh-#31:7223,3630,6468,1104	*	*
00r	.	.	1r	.	.	2.D/	A-	A-	0d\	A-	A-
.	.	.	.	.	.	4E/	.	.	.	.	.
.	.	.	1d/	A-	A-	4F/	.	.	.	.	.
.	.	.	.	.	.	4D/	.	.	.	.	.
.	.	.	.	.	.	1d\	.	.	.	.	.
=2-	=2-	=2-	=2-	=2-	=2-	=2-	=2-	=2-	=2-	=2-	=2-
!	!	!	!	!	!	!	!	!	!LO:TX:t=P:problem=kreska pseudotaktowa	!	!
.	.	.	2e/	-gnus	-gnus	.	.	.	1A/	-gnus	-gnus
*	*	*	*	*	*	*2\right	*	*	*	*	*
!	!	!	!	!	!	!LO:TX:t=P:problem=kreska pseudotaktowa	!	!	!	!	!
.	.	.	1a\	.	De-	2c\	-gnus	-gnus	.	.	.
*	*	*	*	*	*	*lig	*	*	*	*	*
.	.	.	.	.	.	1B\	De-	De-	1.d\	.	De-
!	!	!	!LO:TX:t=P:problem=kreska pseudotaktowa	!	!	!	!	!	!	!	!
.	.	.	2g/	De-	.	.	.	.	.	.	.
=3-	=3-	=3-	=3-	=3-	=3-	=3-	=3-	=3-	=3-	=3-	=3-
*	*	*	*	*	*	*col	*	*	*	*	*
!	!	!	!LO:SIC:v:s=2f	!	!	!	!	!	!	!	!
0r	.	.	2e/	.	.	2.A\	.	.	.	.	.
!	!	!	!LO:SIC:v:s=2e	!	!	!	!	!	!	!	!
.	.	.	2d/	.	.	.	.	.	2c/	De-	.
!	!	!	!	!	!	!	!	!	!LO:TX:t=P:problem=kreska pseudotaktowa	!	!
*	*	*	*	*	*	*Xlig	*	*	*	*	*
!	!	!	!	!	!	!LO:TX:t=P:problem=kreska pseudotaktowa	!	!	!	!	!
.	.	.	.	.	.	4G/	.	.	.	.	.
*	*	*	*	*	*	*Xcol	*	*	*lig	*	*
!	!	!	!LO:SIC:v:s=2d	!	!	!	!	!	!	!	!
.	.	.	2c/	.	.	4F/	.	.	1f\	.	.
.	.	.	.	.	.	4E/	.	.	.	.	.
.	.	.	1dd\	.	.	4F/	.	.	.	.	.
.	.	.	.	.	.	4D/	.	.	.	.	.
=4-	=4-	=4-	=4-	=4-	=4-	=4-	=4-	=4-	=4-	=4-	=4-
!LO:TX:t=P:problem=kreska pseudotaktowa	!	!	!	!	!	!LO:TX:t=P:problem=kreska pseudotaktowa	!	!	!	!	!
1r	.	.	.	.	.	0A\	-i	-i	1e\	.	.
*	*	*	*2\right	*	*	*	*	*	*	*	*
.	.	.	2cc#X\	.	.	.	.	.	.	.	.
!	!	!	!LO:TX:t=P:problem=kreska pseudotaktowa	!	!	!	!	!	!	!	!
!	!	!	!LO:TX:t=P:problem=# above	!	!	!	!	!	!	!	!
*	*	*	*	*	*	*	*	*	*Xlig	*	*
*	*	*	*	*	*	*	*	*	*2\right	*	*
!	!	!	!LO:TX:t=P:problem=cezura na 2. linii	!	!	!	!	!	!	!	!
0D\	A-	A-	2dd,\	-i	-i	.	.	.	2.f\	.	.
.	.	.	(2.d/	A-	A-	.	.	.	.	.	.
!	!	!	!	!	!	!	!	!	!LO:TX:t=P:problem=kreska pseudotaktowa	!	!
.	.	.	.	.	.	.	.	.	4e\	.	.
=5-	=5-	=5-	=5-	=5-	=5-	=5-	=5-	=5-	=5-	=5-	=5-
.	.	.	.	.	.	2r	.	.	1d\	.	.
.	.	.	4e/)	.	.	.	.	.	.	.	.
!	!	!	!	!	!	!	!LO:MO:null:mod=A-	!LO:MO:null:mod=A-	!	!	!
.	.	.	(4f/	-gnus	-gnus	1d\	.	.	.	.	.
!	!	!	!LO:TX:t=P:problem=kreska pseudotaktowa	!	!	!	!	!	!	!	!
.	.	.	4g/)	.	.	.	.	.	.	.	.
1AA/	-gnus	-gnus	1a\	De-	De-	.	.	.	1e\	.	.
!	!	!	!	!	!	!LO:TX:t=P:problem=kreska pseudotaktowa	!	!	!	!	!
!	!	!	!	!	!	!LO:TX:t=P:problem=# below	!LO:MO:mod=-gnus	!LO:MO:mod=-gnus	!	!	!
.	.	.	.	.	.	2c#X\	A-	A-	.	.	.
=6-	=6-	=6-	=6-	=6-	=6-	=6-	=6-	=6-	=6-	=6-	=6-
!	!	!	!LO:TX:t=P:problem=kreska pseudotaktowa	!	!	!	!LO:MO:mod=De-	!LO:MO:mod=De-	!	!	!
1.D\	De-	De-	1a\	-i	-i	2.d\	-gnus	-gnus	1.f\	.	.
.	.	.	.	.	.	8c\L	.	.	.	.	.
!	!	!	!	!	!	!LO:TX:t=P:problem=kreska pseudotaktowa	!	!	!	!	!
.	.	.	.	.	.	8B\J	.	.	.	.	.
!	!	!	!	!	!	!	!LO:MO:null:mod=.	!LO:MO:null:mod=.	!	!	!
.	.	.	1r	.	.	4A/	De-	De-	.	.	.
.	.	.	.	.	.	4B\	.	.	.	.	.
!LO:TX:t=P:problem=kreska pseudotaktowa	!	!	!	!	!	!	!	!	!	!	!
2C/	.	.	.	.	.	2.c\	.	.	1e\	.	.
=7-	=7-	=7-	=7-	=7-	=7-	=7-	=7-	=7-	=7-	=7-	=7-
*lig	*	*	*	*	*	*	*	*	*	*	*
!	!	!	!	!LO:MO:null:mod=[A-	!	!	!	!	!	!	!
1F\	.	.	2.a\	.	[A-	.	.	.	.	.	.
.	.	.	.	.	.	4B\	.	.	.	.	.
!	!	!	!	!	!	!	!	!	!LO:TX:t=P:problem=kreska pseudotaktowa	!	!
.	.	.	.	.	.	1A\	.	.	2d\	.	.
!	!	!	!	!LO:MO:null:mod=-gnus	!	!	!	!	!	!	!
.	.	.	4b\	.	-gnus	.	.	.	.	.	.
*col	*	*	*	*	*	*	*	*	*	*	*
*2\right	*	*	*	*	*	*	*	*	*	*	*
!	!	!	!	!LO:MO:null:mod=De-	!	!	!	!	!	!	!
2.E\	.	.	4cc\	.	De-	.	.	.	2e\	.	.
.	.	.	4b\	.	.	.	.	.	.	.	.
!	!	!	!	!	!	!LO:TX:t=P:problem=kreska pseudotaktowa	!	!	!	!	!
!	!	!	!	!	!	!LO:N:acc=-	!	!	!	!	!
*	*	*	*2\left	*	*	*	*	*	*	*	*
!	!	!	!	!LO:MO:null:mod=-i]	!	!	!	!	!	!	!
.	.	.	2ee\	.	-i]	2Gn/	.	.	1g\	.	.
!	!	!	!LO:TX:t=P:2\left:problem	!	!	!	!	!	!	!	!
!	!	!	!LO:TX:t=P:problem=kreska pseudotaktowa	!	!	!	!	!	!	!	!
*Xlig	*	*	*	*	*	*	*	*	*	*	*
!LO:TX:t=P:problem=kreska pseudotaktowa	!	!	!	!	!	!	!	!	!	!	!
4D/	.	.	.	.	.	.	.	.	.	.	.
*Xcol	*	*	*	*	*	*	*	*	*	*	*
=8-	=8-	=8-	=8-	=8-	=8-	=8-	=8-	=8-	=8-	=8-	=8-
2C/	.	.	2r	.	.	1.A\	.	.	.	.	.
*	*	*	*2\right	*	*	*	*	*	*	*	*
!	!	!	!LO:TX:t=P:problem=kreska pseudotaktowa	!	!	!	!	!	!	!	!
4D/	.	.	2a\	A-	A-	.	.	.	4f\	.	.
!LO:TX:t=P:problem=kreska pseudotaktowa	!	!	!	!	!	!	!	!	!LO:TX:t=P:problem=kreska pseudotaktowa	!	!
4C/	.	.	.	.	.	.	.	.	4e\	.	.
4BB/	.	.	1.dd\	-gnus	-gnus	.	.	.	2.d\	.	.
4AA/	.	.	.	.	.	.	.	.	.	.	.
!	!	!	!	!	!	!LO:TX:t=P:problem=# below	!	!	!	!	!
2BB/	.	.	.	.	.	2G#X/	.	.	.	.	.
!	!	!	!	!	!	!	!	!	!LO:TX:t=P:problem=kreska pseudotaktowa	!	!
.	.	.	.	.	.	.	.	.	4e\	.	.
=9-	=9-	=9-	=9-	=9-	=9-	=9-	=9-	=9-	=9-	=9-	=9-
!LO:TX:t=P:problem=kreska pseudotaktowa	!	!	!	!	!	!	!	!	!	!	!
1AA/	-i	-i	.	.	.	2A/	-i	-i	4f\	.	.
.	.	.	.	.	.	.	.	.	4e\	.	.
!	!	!	!LO:TX:t=P:problem=kreska pseudotaktowa	!	!	!LO:TX:t=P:problem=kreska pseudotaktowa	!	!	!	!	!
*	*	*	*	*	*	*	*	*	*lig	*	*
!	!	!	!	!	!	!	!LO:MO:null:mod=qui	!LO:MO:null:mod=qui	!	!	!
.	.	.	2cc\	De-	.	2A/	.	.	1a\	.	.
*	*	*	*lig	*	*	*	*	*	*	*	*
!	!	!	!	!	!	!	!LO:MO:mod=tol-	!LO:MO:mod=tol-	!	!	!
1r	.	.	1b\	.	De-	2B\	qui	qui	.	.	.
!	!	!	!	!	!	!	!LO:MO:mod=-lis	!LO:MO:mod=-lis	!	!	!
.	.	.	.	.	.	4B\	tol-	tol-	1g\	.	.
*	*	*	*	*	*	*	*	*	*Xlig	*	*
!	!	!	!	!	!	!	!LO:MO:null:mod=.	!LO:MO:null:mod=.	!	!	!
.	.	.	.	.	.	4c\	-lis	-lis	.	.	.
=10-	=10-	=10-	=10-	=10-	=10-	=10-	=10-	=10-	=10-	=10-	=10-
2r	.	.	1a\	.	.	1.d\	pec-	pec-	.	.	.
2D/	qui	qui	.	.	.	.	.	.	2f#X\	.	.
!LO:TX:t=P:problem=kreska pseudotaktowa	!	!	!	!	!	!	!	!	!LO:TX:t=P:problem=# above	!	!
*	*	*	*Xlig	*	*	*	*	*	*	*	*
!	!	!	!	!	!	!	!	!	!LO:TX:t=P:problem=kreska pseudotaktowa	!	!
2E\	tol-	tol-	1.g\	-i	-i	.	.	.	1e\	-i	-i
!	!	!	!	!	!	!LO:TX:t=P:problem=kreska pseudotaktowa	!	!	!	!	!
4E\	-lis	-lis	.	.	.	2c\	-ca-	-ca-	.	.	.
4F\	pec-	pec-	.	.	.	.	.	.	.	.	.
=11-	=11-	=11-	=11-	=11-	=11-	=11-	=11-	=11-	=11-	=11-	=11-
2G\	-ca-	-ca-	.	.	.	2B\	-ta	-ta	0r	.	.
*	*	*	*custos:a	*	*	*	*	*	*	*	*
!	!	!	!LO:TX:t=Imum.:mod=	!	!	!	!	!	!	!	!
!	!	!	!LO:TX:t=P::problem=kreska pseudotaktowa&colon;między nutą a kropką	!	!	!	!	!	!	!	!
!LO:TX:t=P:problem=kreska pseudotaktowa	!	!	!	!	!	!	!	!	!	!	!
2E\	-ta	-ta	2g/	qui	qui	4e\	mun-	mun-	.	.	.
*	*	*	*	*	*	*custos:c	*	*	*	*	*
.	.	.	.	.	.	4d\	.	.	.	.	.
!	!	!	!LO:LB:g=original	!LO:MO:null:mod=tol-	!LO:MO:null:mod=tol-	!LO:LB:g=original	!	!	!	!	!
*	*	*	*xywh-#192:7166,1925,4738,876	*	*	*xywh-#118:1229,2509,5036,802	*	*	*	*	*
1F\	mun-	mun-	2a\	.	.	4c\	.	.	.	.	.
.	.	.	.	.	.	4B\	.	.	.	.	.
!	!	!	!	!LO:MO:mod=-lis	!LO:MO:mod=-lis	!	!	!	!	!	!
.	.	.	4a\	tol-	tol-	1A\	.	.	.	.	.
!	!	!	!LO:TX:t=P:problem=kreska pseudotaktowa	!LO:MO:null:mod=.	!LO:MO:null:mod=.	!	!	!	!	!	!
.	.	.	4b\	-lis	-lis	.	.	.	.	.	.
=12-	=12-	=12-	=12-	=12-	=12-	=12-	=12-	=12-	=12-	=12-	=12-
1E\	-di	-di	2cc\	pec-	pec-	.	.	.	2.e\	Mi-	Mi-
!	!	!	!	!	!	!LO:TX:t=P:problem=kreska pseudotaktowa	!	!	!	!	!
!	!	!	!LO:TX:t=P:problem=kreska pseudotaktowa	!	!	!LO:TX:t=P:problem=# below	!	!	!	!	!
.	.	.	2b\	-ca-	-ca-	2G#X/	.	.	.	.	.
.	.	.	.	.	.	.	.	.	4e\	-ſe-	-ſe-
!	!	!	!	!	!	!LO:TX:t=P:problem=kreska pseudotaktowa	!	!	!	!	!
2.A\	Mi-	Mi-	4a\	-ta	-ta	1A\	-di	-di	2c\	-re-	-re-
.	.	.	4b\	.	.	.	.	.	.	.	.
*	*	*	*	*	*	*	*	*	*custos:d	*	*
!	!	!	!	!	!	!	!	!	!LO:TX:t=P:problem=kreska pseudotaktowa	!	!
.	.	.	1cc\	mun-	mun-	.	.	.	2A/	-re	-re
4A\	-ſe-	-ſe-	.	.	.	.	.	.	.	.	.
!	!	!	!	!	!	!	!	!	!LO:PB:g=original	!	!
=13-	=13-	=13-	=13-	=13-	=13-	=13-	=13-	=13-	=13-	=13-	=13-
!LO:TX:t=P:problem=# above	!	!	!	!	!	!	!	!	!	!	!
*	*	*	*	*	*	*	*	*	*xywh-#32:909,576,5106,831	*	*
2F#X\	-re-	-re-	.	.	.	0r	.	.	2.d\	.	no-
*custos:G	*	*	*	*	*	*	*	*	*	*	*
!LO:TX:t=P:problem=kreska pseudotaktowa	!	!	!	!	!	!	!	!	!	!	!
2D/	-re	-re	4b\	.	.	.	.	.	.	.	.
!LO:LB:g=original	!	!	!	!	!	!	!	!	!	!	!
!	!	!	!LO:TX:t=P:problem=kreska pseudotaktowa	!	!	!	!	!	!	!	!
.	.	.	4a\	.	.	.	.	.	4c/	.	.
!	!	!	!LO:TX:t=P:problem=kreska pseudotaktowa	!	!	!	!	!	!	!	!
*xywh-#285:1357,3668,4378,902	*	*	*	*	*	*	*	*	*	*	*
2.G\	no-	no-	1b\	-di	-di	.	.	.	4B/	no-	.
.	.	.	.	.	.	.	.	.	4A/	.	.
!	!	!	!	!	!	!	!	!	!LO:TX:t=P::problem=kreska pseudotaktowa&colon;między nutą a kropką	!	!
.	.	.	.	.	.	.	.	.	2.g\	.	.
4Fny\	.	.	.	.	.	.	.	.	.	.	.
=14-	=14-	=14-	=14-	=14-	=14-	=14-	=14-	=14-	=14-	=14-	=14-
4E\	.	.	00r	.	.	2.e\	Mi-	Mi-	.	.	.
4D/	.	.	.	.	.	.	.	.	4f\	.	.
!LO:TX:t=P::problem=kreska pseudotaktowa&colon;między nutą a kropką	!	!	!	!	!	!	!	!	!	!	!
2.C/	.	.	.	.	.	.	.	.	2.e\	.	.
.	.	.	.	.	.	4e\	-ſe-	-ſe-	.	.	.
.	.	.	.	.	.	2c\	-re-	-re-	.	.	.
8D\L	.	.	.	.	.	.	.	.	8f\L	.	.
8E\J	.	.	.	.	.	.	.	.	8g\J	.	.
!	!	!	!	!	!	!LO:TX:t=P:problem=kreska pseudotaktowa	!LO:MO:null:mod=.	!LO:MO:null:mod=.	!LO:TX:t=P::problem=kreska pseudotaktowa&colon;między nutą a kropką	!	!
2.F\	.	.	.	.	.	2A/	-re	-re	2.a\	.	.
=15-	=15-	=15-	=15-	=15-	=15-	=15-	=15-	=15-	=15-	=15-	=15-
!	!	!	!	!	!	!	!LO:MO:null:mod=-re	!LO:MO:null:mod=-re	!	!	!
.	.	.	.	.	.	2.d\	.	.	.	.	.
4E\	.	.	.	.	.	.	.	.	4g\	.	.
!LO:TX:t=P:problem=kreska pseudotaktowa	!	!	!	!	!	!	!	!	!	!	!
2D/	.	.	.	.	.	.	.	.	4f\	.	.
!	!	!	!	!	!	!	!LO:MO:null:mod=.	!LO:MO:null:mod=.	!LO:TX:t=P:problem=kreska pseudotaktowa	!	!
.	.	.	.	.	.	4c\	no-	no-	4e\	.	.
!	!	!	!	!	!	!	!LO:MO:null:mod=no-	!LO:MO:null:mod=no-	!	!	!
2.G\	.	.	.	.	.	2.B\	.	.	2d\	.	.
.	.	.	.	.	.	.	.	.	2.g\	.	.
!LO:TX:t=P:problem=kreska pseudotaktowa	!	!	!	!	!	!LO:TX:t=P:problem=kreska pseudotaktowa	!	!	!	!	!
4F\	.	.	.	.	.	4A/	.	.	.	.	.
=16-	=16-	=16-	=16-	=16-	=16-	=16-	=16-	=16-	=16-	=16-	=16-
4E\	.	.	2.ee\	Mi-	Mi-	1G/	.	.	.	.	.
4D/	.	.	.	.	.	.	.	.	4f\	.	.
4C/	.	.	.	.	.	.	.	.	2.e\	.	.
!LO:TX:t=P:problem=kreska pseudotaktowa	!	!	!LO:TX:t=P:problem=kreska pseudotaktowa	!	!	!	!	!	!	!	!
4BB/	.	.	4ee\	-ſe-	-ſe-	.	.	.	.	.	.
1.AA/	.	.	2cc\	-re-	-re-	4A/	.	.	.	.	.
.	.	.	.	.	.	4B\	.	.	4d\	.	.
!	!	!	!	!	!	!LO:TX:t=P::problem=kreska pseudotaktowa&colon;między nutą a kropką	!	!	!	!	!
.	.	.	2a\	-re	-re	2.c\	.	.	4c/	.	.
!	!	!	!	!	!	!	!	!	!LO:TX:t=P:problem=kreska pseudotaktowa	!	!
.	.	.	.	.	.	.	.	.	4B/	.	.
=17-	=17-	=17-	=17-	=17-	=17-	=17-	=17-	=17-	=17-	=17-	=17-
.	.	.	2cc\	no-	no-	.	.	.	2A/	.	.
.	.	.	.	.	.	4d\	.	.	.	.	.
!LO:TX:t=P:problem=kreska pseudotaktowa	!	!	!	!	!	!	!	!	!	!	!
!LO:TX:t=P:problem=# above	!	!	!LO:TX:t=P::problem=kreska pseudotaktowa&colon;między nutą a kropką	!	!	!	!	!	!	!	!
2GG#X/	.	.	2.b\	.	.	1e\	.	.	2B/	.	.
*lig	*	*	*	*	*	*	*	*	*	*	*
1AA/	.	.	.	.	.	.	.	.	2c/	.	.
.	.	.	4a\	.	.	.	.	.	.	.	.
!	!	!	!	!	!	!LO:TX:t=P:problem=kreska pseudotaktowa	!	!	!LO:TX:t=P::problem=kreska pseudotaktowa&colon;między nutą a kropką	!	!
.	.	.	1a\	.	.	2c\	-bis	-bis	2.f\	.	.
=18-	=18-	=18-	=18-	=18-	=18-	=18-	=18-	=18-	=18-	=18-	=18-
1BB-X/	.	.	.	.	.	1.d\	Mi-	Mi-	.	.	.
.	.	.	.	.	.	.	.	.	4e\	.	.
.	.	.	2g/	.	.	.	.	.	4d\	.	.
.	.	.	.	.	.	.	.	.	4e\	.	.
!	!	!	!LO:TX:t=P:problem=kreska pseudotaktowa	!	!	!	!	!	!LO:TX:t=P:problem=kreska pseudotaktowa	!	!
*Xlig	*	*	*	*	*	*	*	*	*	*	*
0.AA/	.	.	0a\	.	.	.	.	.	2f\	.	.
!	!	!	!	!	!	!LO:TX:t=P:problem=kreska pseudotaktowa	!	!	!	!	!
!	!	!	!	!	!	!LO:TX:t=P:problem=# below	!	!	!	!	!
*	*	*	*	*	*	*	*	*	*lig	*	*
.	.	.	.	.	.	2c#X\	-ſe-	-ſe-	1e\	.	.
=19-	=19-	=19-	=19-	=19-	=19-	=19-	=19-	=19-	=19-	=19-	=19-
.	.	.	.	.	.	2.f\	-re-	-re-	.	.	.
.	.	.	.	.	.	.	.	.	1d\	.	.
.	.	.	.	.	.	4f\	-re	-re	.	.	.
!	!	!	!LO:SIC:s=[1a	!	!	!	!	!	!	!	!
.	.	.	[1a\;<l	-bis	-bis	1e\	no-	no-	.	.	.
*	*	*	*	*	*	*	*	*	*Xlig	*	*
!	!	!	!	!	!	!	!	!	!LO:TX:t=P:problem=# below	!	!
.	.	.	.	.	.	.	.	.	2c#X/	.	.
=20-	=20-	=20-	=20-	=20-	=20-	=20-	=20-	=20-	=20-	=20-	=20-
!	!	!	!LO:SIC:s=0a];	!	!	!LO:SIC:s=0d;	!	!	!	!	!
0D\;<l	-bis	-bis	0a]	.	.	0d\l	-bis	-bis	0d\;l	-bis	-bis
!LO:PB:g=original	!	!	!LO:LB:g=original	!	!	!LO:LB:g=original	!	!	!LO:LB:g=original	!	!
*xywh-#285:7204,451,6306,910	*	*	*	*	*	*xywh-#118:884,3118,6356,842	*	*	*	*	*
=21||-	=21||-	=21||-	=21||-	=21||-	=21||-	=21||-	=21||-	=21||-	=21||-	=21||-	=21||-
!LO:MO:mod=*null:null	!	!	!LO:MO:mod=*null:null	!	!	!LO:MO:mod=*null:null	!	!	!LO:MO:mod=*null:null	!	!
*M2/1	*	*	*M2/1	*	*	*M2/1	*	*	*M2/1	*	*
*met(c|)	*	*	*met(c|)	*	*	*met(c|)	*	*	*met(c|)	*	*
!	!	!	!	!	!	!	!	!	!LO:TX:t=2dum:mod=	!	!
!	!	!	!	!	!	!LO:TX:t=2dum.:mod=	!	!	!LO:TX:t=P:problem=kreska pseudotaktowa	!	!
*	*	*	*xywh-#192:7189,2582,6225,807	*	*	*	*	*	*xywh-#32:682,1256,6374,814	*	*
00r	.	.	1a\	A-	A-	00r	.	.	0r	.	.
.	.	.	2d/	-gnus	-gnus	.	.	.	.	.	.
.	.	.	2.a\	De-	De-	.	.	.	.	.	.
=22-	=22-	=22-	=22-	=22-	=22-	=22-	=22-	=22-	=22-	=22-	=22-
.	.	.	.	.	.	.	.	.	1d\	A-	A-
.	.	.	4g/	.	.	.	.	.	.	.	.
.	.	.	4a\	.	.	.	.	.	.	.	.
!	!	!	!LO:TX:t=P:problem=kreska pseudotaktowa	!	!	!	!	!	!	!	!
.	.	.	4b\	.	.	.	.	.	.	.	.
.	.	.	2cc\	.	.	.	.	.	2A/	-gnus	-gnus
.	.	.	2b\	.	.	.	.	.	2.d\	De-	De-
=23-	=23-	=23-	=23-	=23-	=23-	=23-	=23-	=23-	=23-	=23-	=23-
!	!	!	!LO:TX:t=P:problem=kreska pseudotaktowa	!	!	!LO:TX:t=P:problem=kreska pseudotaktowa	!	!	!	!	!
00r	.	.	1a\	.	.	0r	.	.	.	.	.
.	.	.	.	.	.	.	.	.	4c/	.	.
.	.	.	.	.	.	.	.	.	4d\	.	.
!	!	!	!	!	!	!	!	!	!LO:TX:t=P:problem=kreska pseudotaktowa	!	!
.	.	.	.	.	.	.	.	.	4e\	.	.
.	.	.	2d/	.	.	.	.	.	1f\	.	.
.	.	.	1dd\	.	.	.	.	.	.	.	.
=24-	=24-	=24-	=24-	=24-	=24-	=24-	=24-	=24-	=24-	=24-	=24-
!LO:TX:t=P:problem=kreska pseudotaktowa	!	!	!	!	!	!	!	!	!	!	!
.	.	.	.	.	.	1A\	A-	A-	1e\	-i	-i
.	.	.	2cc#X\	.	.	.	.	.	.	.	.
!	!	!	!LO:TX:t=P:problem=kreska pseudotaktowa	!	!	!	!	!	!LO:TX:t=P:problem=kreska pseudotaktowa	!	!
.	.	.	0dd\	-i	-i	2D/	-gnus	-gnus	0f\	A-	A-
!	!	!	!	!	!	!	!LO:MO:null:mod=De-	!LO:MO:null:mod=De-	!	!	!
.	.	.	.	.	.	2.A/	.	.	.	.	.
=25-	=25-	=25-	=25-	=25-	=25-	=25-	=25-	=25-	=25-	=25-	=25-
1D\	A-	A-	.	.	.	.	.	.	.	.	.
!	!	!	!	!	!	!	!LO:MO:null:mod=.	!LO:MO:null:mod=.	!	!	!
.	.	.	.	.	.	4G/	De-	De-	.	.	.
.	.	.	.	.	.	4A/	.	.	.	.	.
!	!	!	!	!	!	!LO:TX:t=P:problem=kreska pseudotaktowa	!	!	!	!	!
.	.	.	.	.	.	4B\	.	.	.	.	.
2AA/	-gnus	-gnus	0r	.	.	4c\	.	.	2e\	-gnus	-gnus
.	.	.	.	.	.	4B\	.	.	.	.	.
!	!	!	!	!	!	!	!	!	!	!LO:MO:null:mod=De-	!LO:MO:null:mod=De-
2.D/	De-	De-	.	.	.	4A/	.	.	2.f\	.	.
.	.	.	.	.	.	8G/L	.	.	.	.	.
!	!	!	!	!	!	!LO:TX:t=P:problem=kreska pseudotaktowa	!	!	!	!	!
.	.	.	.	.	.	8A/J	.	.	.	.	.
=26-	=26-	=26-	=26-	=26-	=26-	=26-	=26-	=26-	=26-	=26-	=26-
!	!	!	!LO:TX:t=P:problem=kreska pseudotaktowa	!	!	!	!	!	!	!	!
.	.	.	.	.	.	1B-X\	.	.	.	.	.
!	!	!	!	!	!	!	!	!	!	!LO:MO:null:mod=.	!LO:MO:null:mod=.
4C/	.	.	.	.	.	.	.	.	4e\	De-	De-
4D/	.	.	.	.	.	.	.	.	4f\	.	.
!LO:TX:t=P:problem=kreska pseudotaktowa	!	!	!	!	!	!	!	!	!LO:TX:t=P:problem=kreska pseudotaktowa	!	!
4E\	.	.	.	.	.	.	.	.	4g\	.	.
2.F\	.	.	1r	.	.	2A/	.	.	1a\	.	.
.	.	.	.	.	.	1d\	.	.	.	.	.
4G\	.	.	.	.	.	.	.	.	.	.	.
=27-	=27-	=27-	=27-	=27-	=27-	=27-	=27-	=27-	=27-	=27-	=27-
!	!	!	!	!	!	!	!	!	!LO:TX:t=P:problem=kreska pseudotaktowa	!	!
2A\	.	.	1a\	A-	A-	.	.	.	1e\	-i	-i
2.AA/	.	.	.	.	.	4c\	.	.	.	.	.
!	!	!	!	!	!	!LO:TX:t=P:problem=kreska pseudotaktowa	!	!	!	!	!
.	.	.	.	.	.	4B\	.	.	.	.	.
.	.	.	2e/	-gnus	-gnus	1c\	.	.	1.e\	De-	De-
4BB/	.	.	.	.	.	.	.	.	.	.	.
4C/	.	.	2.a\	De-	De-	.	.	.	.	.	.
!LO:TX:t=P:problem=kreska pseudotaktowa	!	!	!	!	!	!	!	!	!	!	!
4AA/	.	.	.	.	.	.	.	.	.	.	.
=28-	=28-	=28-	=28-	=28-	=28-	=28-	=28-	=28-	=28-	=28-	=28-
1F\	.	.	.	.	.	4c\	.	.	.	.	.
.	.	.	4g/	.	.	4B\	.	.	.	.	.
.	.	.	4a\	.	.	1A\	.	.	2d\	.	.
!	!	!	!LO:TX:t=P:problem=kreska pseudotaktowa	!	!	!	!	!	!	!	!
.	.	.	4b\	.	.	.	.	.	.	.	.
!LO:TX:t=P:problem=cezura na 1. linii	!	!	!	!	!	!	!	!	!LO:TX:t=P:problem=cezura na 2. linii	!	!
2E,\	-i	-i	2cc\	.	.	.	.	.	1e\,	-i	-i
!	!	!	!	!	!	!LO:TX:t=P:problem=kreska pseudotaktowa	!	!	!	!	!
2E\	qui	qui	2b\	.	.	2G/	.	.	.	.	.
=29-	=29-	=29-	=29-	=29-	=29-	=29-	=29-	=29-	=29-	=29-	=29-
!	!LO:MO:null:mod=tol-	!LO:MO:null:mod=tol-	!LO:TX:t=P:problem=kreska pseudotaktowa	!	!	!LO:TX:t=P:problem=cezura na 2. linii	!	!	!	!	!
4A\	.	.	1a\	-i	-i	2A,/	-i	-i	2e\	qui	qui
4G\	.	.	.	.	.	.	.	.	.	.	.
!	!LO:MO:null:mod=.	!LO:MO:null:mod=.	!	!	!	!	!	!	!	!LO:MO:null:mod=tol-	!LO:MO:null:mod=tol-
4F\	tol-	tol-	.	.	.	2A/	qui	qui	4a\	.	.
!	!	!	!	!	!	!	!	!	!LO:TX:t=P:problem=kreska pseudotaktowa	!	!
4E\	.	.	.	.	.	.	.	.	4g\	.	.
!	!	!	!	!	!	!	!LO:MO:null:mod=tol-	!LO:MO:null:mod=tol-	!	!LO:MO:null:mod=.	!LO:MO:null:mod=.
2D/	.	.	1r	.	.	4d\	.	.	4f\	tol-	tol-
.	.	.	.	.	.	4c\	.	.	4e\	.	.
!	!	!	!	!	!	!	!LO:MO:null:mod=.	!LO:MO:null:mod=.	!	!	!
1G\	.	.	.	.	.	4B\	tol-	tol-	2.d\	.	.
!	!	!	!	!	!	!LO:TX:t=P:problem=kreska pseudotaktowa	!	!	!	!	!
.	.	.	.	.	.	4A/	.	.	.	.	.
=30-	=30-	=30-	=30-	=30-	=30-	=30-	=30-	=30-	=30-	=30-	=30-
.	.	.	2r	.	.	1B\	.	.	.	.	.
.	.	.	.	.	.	.	.	.	8e\L	.	.
.	.	.	.	.	.	.	.	.	8f\J	.	.
!LO:TX:t=P:problem=kreska pseudotaktowa	!	!	!LO:TX:t=P:problem=kreska pseudotaktowa	!	!	!	!	!	!	!	!
2GG/	.	.	2b\	pec-	pec-	.	.	.	4g\	.	.
!	!	!	!	!	!	!	!	!	!LO:TX:t=P:problem=kreska pseudotaktowa	!	!
.	.	.	.	.	.	.	.	.	4f\	.	.
!LO:TX:t=P:problem=cezura na 1. linii	!	!	!	!	!	!	!	!	!	!	!
2C,/	-lis	-lis	4ee\	-ca-	-ca-	2c\	-lis	-lis	2e\	.	.
.	.	.	4dd\	.	.	.	.	.	.	.	.
!	!	!	!	!	!	!LO:TX:t=P:problem=kreska pseudotaktowa	!	!	!LO:TX:t=P:problem=kreska pseudotaktowa	!	!
2C/	pec-	pec-	4cc\	.	.	2A/	.	pec-	2e\	-lis	-lis
!	!	!	!LO:TX:t=P:problem=kreska pseudotaktowa	!	!	!	!	!	!	!	!
.	.	.	4b\	.	.	.	.	.	.	.	.
=31-	=31-	=31-	=31-	=31-	=31-	=31-	=31-	=31-	=31-	=31-	=31-
*	*	*	*	*	*	*	*	*	*custos:c	*	*
2D/	-ca-	-ca-	2a\	.	.	4A/	pec-	-ca-	2f\	pec-	pec-
!	!	!	!	!	!	!	!LO:MO:null:mod=.	!LO:MO:null:mod=.	!	!	!
.	.	.	.	.	.	4B\	-ca-	.	.	.	.
!	!	!	!	!	!	!	!	!	!LO:LB:g=original	!	!
!LO:TX:t=P:problem=kreska pseudotaktowa	!	!	!LO:TX:t=P:problem=# above	!	!	!	!	!	!	!LO:MO:null:mod=-ca-	!LO:MO:null:mod=-ca-
*	*	*	*	*	*	*	*	*	*xywh-#32:1144,1961,5853,755	*	*
2E\	-ta	-ta	2g#X/	-ta	-ta	4c\	.	.	2.e\	.	.
!	!	!	!	!	!	!LO:TX:t=P:problem=kreska pseudotaktowa	!	!	!	!	!
.	.	.	.	.	.	4B\	.	.	.	.	.
!	!	!	!	!	!	!	!	!	!	!	!
2F\	mun-	mun-	1.a\	mun-	mun-	2A/	.	.	.	.	.
!	!	!	!	!	!	!	!	!	!	!LO:MO:null:mod=.	!LO:MO:null:mod=.
.	.	.	.	.	.	.	.	.	8d\L	-ca-	-ca-
!	!	!	!	!	!	!	!	!	!	!	!
.	.	.	.	.	.	.	.	.	8e\J	.	.
!	!	!	!	!	!	!	!	!	!LO:TX:t=P:problem=kreska pseudotaktowa	!LO:MO:null:mod=-ta	!LO:MO:null:mod=-ta
2D/	.	.	.	.	.	2.d\	.	-ta	2.f\	.	.
=32-	=32-	=32-	=32-	=32-	=32-	=32-	=32-	=32-	=32-	=32-	=32-
*lig	*	*	*	*	*	*	*	*	*	*	*
1A\	.	.	.	.	.	.	.	.	.	.	.
.	.	.	.	.	.	8c\L	.	.	8e\L	.	.
*	*	*	*	*	*	*custos:c	*	*	*	*	*
.	.	.	.	.	.	8B\J	.	.	8d\J	.	.
*	*	*	*custos:G	*	*	*	*	*	*	*	*
!	!	!	!	!	!	!LO:LB:g=original	!	!	!	!	!
!	!	!	!LO:TX:t=2dum.:mod=	!	!	!	!	!	!	!	!
*	*	*	*	*	*	*xywh-#118:1321,3808,5919,863	*	*	*	*	*
.	.	.	[2cc\	.	.	4c\	.	.	4e\	.	.
!	!	!	!	!	!	!LO:TX:t=P:problem=kreska pseudotaktowa	!	!LO:MO:null:mod=.	!LO:TX:t=P:problem=kreska pseudotaktowa	!LO:MO:null:mod=.	!LO:MO:null:mod=.
.	.	.	.	.	.	4d\	-ta	.	4f\	-ta	-ta
*custos:C	*	*	*	*	*	*	*	*	*	*	*
!	!	!	!LO:LB:g=original	!	!	!	!	!	!	!	!
!LO:TX:t=2dum:mod=	!	!	!	!	!	!	!LO:MO:null:mod=mun-	!	!	!LO:MO:null:mod=mun-	!LO:MO:null:mod=mun-
*	*	*	*xywh-#192:7177,3181,5637,807	*	*	*	*	*	*	*	*
1G\	.	.	2cc\]	.	.	4e\	.	.	1g\	.	.
!	!	!	!	!	!	!	!LO:MO:null:mod=.	!	!	!	!
.	.	.	.	.	.	8d\L	mun-	.	.	.	.
.	.	.	.	.	.	8c\J	.	.	.	.	.
.	.	.	2b\	.	.	2d\	.	mun-	.	.	.
!	!	!	!	!	!	!LO:TX:t=P:problem=kreska pseudotaktowa	!	!	!	!	!
*Xlig	*	*	*	*	*	*	*	*	*	*	*
!LO:LB:g=original	!	!	!	!	!	!	!	!	!	!	!
=33-	=33-	=33-	=33-	=33-	=33-	=33-	=33-	=33-	=33-	=33-	=33-
!LO:TX:t=P:problem=kreska pseudotaktowa	!	!	!LO:TX:t=P:problem=cezura na 4. linii	!	!	!	!LO:MO:null:mod=-di	!LO:MO:null:mod=-di	!	!LO:MO:mod=-di	!LO:MO:mod=-di
*xywh-#285:7175,1204,4930,766	*	*	*	*	*	*	*	*	*	*	*
1C/	-di	-di	2cc,\	-di	-di	2e\	.	.	2g\	Mun-	Mun-
!	!	!	!	!LO:MO:null:mod=Mi-	!LO:MO:null:mod=Mi-	!	!LO:MO:mod=Mi-	!LO:MO:mod=Mi-	!	!LO:MO:mod=Mi-	!LO:MO:mod=Mi-
.	.	.	1g\	.	.	1c\	-di	-di	1e\	-di	-di
00r	.	.	.	.	.	.	.	.	.	.	.
!	!	!	!LO:TX:t=P:problem=kreska pseudotaktowa	!LO:MO:mod=-se-	!LO:MO:mod=-se-	!LO:TX:t=P:problem=kreska pseudotaktowa	!LO:MO:null:mod=-se-	!LO:MO:null:mod=-se-	!LO:TX:t=P:problem=kreska pseudotaktowa	!LO:MO:mod=-se-	!LO:MO:mod=-se-
.	.	.	2g/	Mi-	Mi-	2B\	.	.	2d\	Mi-	Mi-
=34-	=34-	=34-	=34-	=34-	=34-	=34-	=34-	=34-	=34-	=34-	=34-
!	!	!	!	!LO:MO:mod=-re-	!LO:MO:mod=-re-	!	!LO:MO:mod=-re-	!LO:MO:mod=-re-	!	!LO:MO:mod=-re-	!LO:MO:mod=-re-
.	.	.	2g/	-ſe-	-ſe-	2c\	Mi-	Mi-	2e\	-ſe-	-ſe-
!	!	!	!	!LO:MO:mod=-re	!LO:MO:mod=-re	!LO:TX:t=P:problem=kreska pseudotaktowa	!LO:MO:mod=-re	!LO:MO:mod=-re	!	!LO:MO:mod=-re	!LO:MO:mod=-re
.	.	.	2a\	-rere	-rere	2A/	-ſe-	-ſe-	2f#X\	-re-	-re-
!	!	!	!	!	!	!	!LO:MO:mod=no-	!LO:MO:mod=no-	!	!LO:MO:mod=no-	!LO:MO:mod=no-
.	.	.	1.b-X\	no-	no-	4G/	-re-	-re-	1.g\	-re	-re
.	.	.	.	.	.	4A/	.	.	.	.	.
.	.	.	.	.	.	4B-X\	.	.	.	.	.
!	!	!	!	!	!	!LO:TX:t=P:problem=kreska pseudotaktowa	!	!	!	!	!
.	.	.	.	.	.	4c\	.	.	.	.	.
=35-	=35-	=35-	=35-	=35-	=35-	=35-	=35-	=35-	=35-	=35-	=35-
!LO:TX:t=P:problem=kreska pseudotaktowa	!	!	!	!	!	!	!	!	!	!	!
.	.	.	.	.	.	2.d\	.	.	.	.	.
.	.	.	1a\	.	.	.	.	.	4f\	.	.
!	!	!	!	!	!	!	!	!	!LO:TX:t=P:problem=kreska pseudotaktowa	!LO:MO:null:mod=.	!LO:MO:null:mod=.
.	.	.	.	.	.	4c\	.	.	4e\	no-	no-
!	!	!	!	!	!	!	!LO:MO:null:mod=.	!LO:MO:null:mod=.	!	!	!
1r	.	.	.	.	.	4B-X\	-re	-re	4d\	.	.
.	.	.	.	.	.	4A/	.	.	4c/	.	.
!	!	!	!LO:TX:t=P:problem=kreska pseudotaktowa	!	!	!LO:TX:t=P:problem=kreska pseudotaktowa	!LO:MO:null:mod=.	!LO:MO:null:mod=.	!	!	!
.	.	.	2g/	.	.	2B-\	no-	no-	1d\	.	.
=36-	=36-	=36-	=36-	=36-	=36-	=36-	=36-	=36-	=36-	=36-	=36-
1A\	Mi-	Mi-	2f/	.	.	2.A/	.	.	.	.	.
!	!	!	!	!	!	!	!	!	!LO:TX:t=P:problem=# below	!	!
!	!	!	!	!	!	!	!	!	!LO:TX:t=P:problem=kreska pseudotaktowa	!	!
.	.	.	2e/	.	.	.	.	.	2c#X/	.	.
.	.	.	.	.	.	4G/	-bis	-bis	.	.	.
!	!	!	!LO:TX:t=P:problem=kreska pseudotaktowa	!	!	!	!	!	!	!	!
2D/	-ſe-	-ſe-	1d/	-bis	-bis	4r	.	.	2d\	-bis	-bis
.	.	.	.	.	.	4F/	Mi-	Mi-	.	.	.
1G\	-re-	-re-	.	.	.	8G/L	-ſe-	-ſe-	2d\	.	Mi-
.	.	.	.	.	.	8A/	.	.	.	.	.
!	!	!	!	!	!	!LO:TX:t=P:problem=♭ above	!	!	!	!	!
.	.	.	.	.	.	8B-X/	.	.	.	.	.
!	!	!	!	!	!	!LO:TX:t=P:problem=kreska pseudotaktowa	!	!	!	!	!
.	.	.	.	.	.	8c/J	.	.	.	.	.
=37-	=37-	=37-	=37-	=37-	=37-	=37-	=37-	=37-	=37-	=37-	=37-
.	.	.	0r	.	.	1d\	.	.	2A/	Mi-	-se-
!LO:TX:t=P:problem=# above	!	!	!	!	!	!	!	!	!	!	!
2F#X\	-re	-re	.	.	.	.	.	.	1d\	-ſe-	-re-
1B-X\	no-	no-	.	.	.	1G/	.	.	.	.	.
!	!	!	!	!	!	!	!	!	!LO:TX:t=P:problem=kreska pseudotaktowa	!	!
.	.	.	.	.	.	.	.	.	2B-X/	-re-	-re
=38-	=38-	=38-	=38-	=38-	=38-	=38-	=38-	=38-	=38-	=38-	=38-
!	!	!	!LO:TX:t=P:problem=kreska pseudotaktowa	!	!	!	!	!	!	!	!
4A\	.	.	1r	.	.	2D/	.	.	1f\	-re	no-
4G\	.	.	.	.	.	.	.	.	.	.	.
4F\	.	.	.	.	.	1d\	.	.	.	.	.
8E\L	.	.	.	.	.	.	.	.	.	.	.
8D\J	.	.	.	.	.	.	.	.	.	.	.
!LO:TX:t=P:problem=kreska pseudotaktowa	!	!	!	!	!	!	!	!	!	!	!
1A\	-bis	-bis	1a\	Mi-	Mi-	.	.	.	2e\	no-	-bis-
!	!	!	!	!	!	!LO:TX:t=P:problem=kreska pseudotaktowa	!	!	!	!	!
*	*	*	*	*	*	*	*	*	*	*	*ij
.	.	.	.	.	.	2c\	-re	-re	1a\	-bis	no-
=39-	=39-	=39-	=39-	=39-	=39-	=39-	=39-	=39-	=39-	=39-	=39-
*	*	*	*	*	*	*lig	*	*	*	*	*
0r	.	.	2d/	.	-se-	1f\	no-	no-	.	.	.
!	!	!	!	!	!	!	!	!	!LO:TX:t=P:problem=kreska pseudotaktowa	!	!
*	*	*	*	*	*	*	*	*	*	*ij	*
.	.	.	1dd\	-ſe-	-re-	.	.	.	2d\	no-	.
.	.	.	.	.	.	1e\	.	.	1.g\	.	.
.	.	.	2cc\	-re-	-re	.	.	.	.	.	.
*	*	*	*	*	*	*Xlig	*	*	*	*	*
=40-	=40-	=40-	=40-	=40-	=40-	=40-	=40-	=40-	=40-	=40-	=40-
1D\	Mi-	Mi-	2b-X\	-re	no-	1.d\	.	.	.	.	.
!	!	!	!LO:TX:t=P:problem=kreska pseudotaktowa	!	!	!	!	!	!	!	!
.	.	.	2a\	.	.	.	.	.	2f\	.	.
2AA/	-ſe-	-ſe-	1.cc\	no-	.	.	.	.	1e\	.	.
!LO:TX:t=P:problem=kreska pseudotaktowa	!	!	!	!	!	!LO:TX:t=P:problem=kreska pseudotaktowa	!	!	!	!	!
2A\	-re-	-re-	.	.	.	2A/	.	.	.	.	.
=41-	=41-	=41-	=41-	=41-	=41-	=41-	=41-	=41-	=41-	=41-	=41-
!	!	!	!	!	!	!LO:TX:t=P:problem=cezura pod 1. linią	!	!	!	!	!
2F#X\	-re	-re	.	.	.	2D,/	-bis	-bis	[0d\l	-bis	-bis
4G\	.	.	2b-X\	.	.	1G/	Mi-	Mi-	.	.	.
!LO:TX:t=P:problem=kreska pseudotaktowa	!	!	!	!	!	!	!	!	!	!	!
4A\	.	.	.	.	.	.	.	.	.	.	.
2B-X\	.	.	1dd\	.	.	.	.	.	.	.	.
*	*	*	*	*	*	*custos:B-	*	*	*	*	*
1A\	.	.	.	.	.	2F/	-ſe-	-ſe-	.	.	.
!	!	!	!	!	!	!LO:PB:g=original	!	!	!	!	!
=42-	=42-	=42-	=42-	=42-	=42-	=42-	=42-	=42-	=42-	=42-	=42-
*	*	*	*	*	*	*xywh-#118:7362,567,6376,812	*	*	*	*	*
.	.	.	2d/	.	.	1.B-X\	-re-	-re-	0d_	.	.
2G\	.	.	1g\	.	.	.	.	.	.	.	.
0D\	no-	no-	.	.	.	.	.	.	.	.	.
!	!	!	!LO:TX:t=P:problem=# below	!	!	!	!	!	!	!	!
!	!	!	!LO:TX:t=P:problem=kreska pseudotaktowa	!	!	!	!	!	!	!	!
.	.	.	2f#X/	.	.	1A\	-re	-re	.	.	.
=43-	=43-	=43-	=43-	=43-	=43-	=43-	=43-	=43-	=43-	=43-	=43-
!	!	!	!	!	!	!LO:TX:t=P:problem=kreska pseudotaktowa	!	!	!	!	!
.	.	.	2.b-X\	.	.	.	.	.	0d\_	.	.
.	.	.	.	.	.	4G/	no-	.	.	.	.
.	.	.	8a\L	.	.	4F/	.	.	.	.	.
.	.	.	8g\J	.	.	.	.	.	.	.	.
!LO:SIC:s=[1D	!	!	!	!	!	!	!	!	!	!	!
[1D\;<l	-bis	-bis	[1a\l	-bis	-bis	1G/	.	no-	.	.	.
*	*	*	*	*	*	*	*	*	*	*Xij	*Xij
!	!	!	!	!	!	!	!	!	!	!	!
=44-	=44-	=44-	=44-	=44-	=44-	=44-	=44-	=44-	=44-	=44-	=44-
!LO:SIC:s=0D];	!	!	!LO:SIC:s=0a];	!	!	!LO:SIC:s=0F#;	!	!	!LO:SIC:s=0d];	!	!
0D]	.	.	0a]	.	.	0F#Xl	-bis.	-bis	0d]	.	.
!LO:LB:g=original	!	!	!LO:LB:g=original	!	!	!	!	!	!LO:LB:g=original	!	!
=45||-	=45||-	=45||-	=45||-	=45||-	=45||-	=45||-	=45||-	=45||-	=45||-	=45||-	=45||-
!LO:MO:mod=*null:null	!	!	!LO:MO:mod=*null:null	!	!	!LO:MO:mod=*null:null	!	!	!LO:MO:mod=*null:null	!	!
*M2/1	*	*	*M2/1	*	*	*M2/1	*	*	*M2/1	*	*
*met(c|)	*	*	*met(c|)	*	*	*met(c|)	*	*	*met(c|)	*	*
!	!	!	!	!	!	!	!	!	!LO:TX:t=3tium:mod=	!	!
*xywh-#285:7218,1770,6220,831	*	*	*xywh-#192:7189,3804,6260,968	*	*	*	*	*	*xywh-#32:699,2591,6357,772	*	*
1D\	A-	A-	1f/	A-	A-	1A\	A-	A-	1d\	A-	A-
!	!	!	!	!	!	!	!	!	!LO:TX:t=P:problem=# below	!	!
2AA/	-gnus	-gnus	2e/	-gnus	-gnus	2A/	-gnus	-gnus	2c#X/	-gnus	-gnus
!	!	!	!	!	!	!	!	!	!LO:TX:t=P::problem=kreska pseudotaktowa&colon;między nutą a kropką	!	!
!LO:MO:mod=[2D	!	!	!LO:MO:mod=[2f	!	!	!LO:MO:mod=[2A	!	!	!LO:MO:mod=[2d	!	!
2.D/	De-	De-	2.f/	De	De	2.A/	.	De-	2.d\	.	De-
=46-	=46-	=46-	=46-	=46-	=46-	=46-	=46-	=46-	=46-	=46-	=46-
!LO:MO:null:mod=4D]	!	!	!LO:MO:null:mod=4f]	!	!	!LO:MO:null:mod=4A]	!	!	!LO:MO:null:mod=4d]	!	!
.	.	.	.	.	.	.	.	.	.	.	.
4D/	-i	-i	4f/	i	i	4A/	De-	-i	4d\	De-	-i
!LO:TX:t=P:problem=kreska pseudotaktowa	!	!	!LO:TX:t=P:problem=kreska pseudotaktowa	!	!	!LO:TX:t=P:problem=kreska pseudotaktowa	!	!	!	!	!
2C/	qui	qui	2g/	qui	qui	2c\	-i	qui	4e\	-i	qui
.	.	.	.	.	.	.	.	.	2e\	qui	tol-
1F\	.	tol-	1a\	.	tol-	2c\	qui	tol-	.	.	.
.	.	.	.	.	.	.	.	.	8d\L	tol-	.
.	.	.	.	.	.	.	.	.	8c\J	.	.
!	!	!	!	!	!	!	!	!	!LO:TX:t=P:problem=kreska pseudotaktowa	!	!
.	.	.	.	.	.	4B\	tol	.	2d\	-lis	.
!	!	!	!	!	!	!LO:TX:t=P:problem=kreska pseudotaktowa	!	!	!	!	!
.	.	.	.	.	.	4A/	.	.	.	.	.
=47-	=47-	=47-	=47-	=47-	=47-	=47-	=47-	=47-	=47-	=47-	=47-
2E\	tol-	-lis	2g#X\	tol-	-lis	2B\	.	-lis	2e\	.	-lis
!LO:TX:t=P:problem=kreska pseudotaktowa	!	!	!LO:TX:t=P:problem=kreska pseudotaktowa	!	!	!	!	!	!	!	!
2E\	-lis	pec-	2g#\	-lis	pec-	2B\	lis	pec-	2e\	pec-	pec-
2A\	pec-	-ca-	2a\	pec-	-ca-	4.c\	pec-	-ca-	2e\	-ca-	-ca-
.	.	.	.	.	.	8c\	-ca-	-ta	.	.	.
!LO:TX:t=P:problem=# below	!	!	!	!	!	!LO:TX:t=P::problem=kreska pseudotaktowa&colon;między nutą a kropką	!	!	!LO:TX:t=P:problem=kreska pseudotaktowa	!	!
2G#X\	-ca-	-ta	2b\	-ca-	-ta	2.B\	-ta	mun-	2e\	-ta	-ta
=48-	=48-	=48-	=48-	=48-	=48-	=48-	=48-	=48-	=48-	=48-	=48-
1A\	-ta	mun-	1cc\	-ta	mun-	.	.	.	1e\	mun-	mun-
.	.	.	.	.	.	8A/L	mun-	.	.	.	.
.	.	.	.	.	.	8G/J	.	.	.	.	.
.	.	.	.	.	.	2A/	.	.	.	.	.
!	!	!	!	!	!	!LO:TX:t=P:problem=kreska pseudotaktowa	!	!	!	!	!
!LO:TX:t=P:problem=kreska pseudotaktowa	!	!	!LO:TX:t=P:problem=kreska pseudotaktowa	!	!	!LO:TX:t=P:problem=# above	!	!	!LO:TX:t=P:problem=kreska pseudotaktowa	!	!
1E\	mundi	-di	1b\	mundi	-di	1G#X/	-di	-di	1e\	-di	-di
=49-	=49-	=49-	=49-	=49-	=49-	=49-	=49-	=49-	=49-	=49-	=49-
00r	.	.	00r	.	.	1r	.	.	2.e\	.	Do-
.	.	.	.	.	.	.	.	.	4e\	.	-na
.	.	.	.	.	.	2.A/	Do-	Do-	2c/	Do-	no-
!	!	!	!	!	!	!	!	!	!LO:TX:t=P:problem=kreska pseudotaktowa	!	!
.	.	.	.	.	.	.	.	.	2A/	-na	-bis
*	*	*	*	*	*	*custos:F	*	*	*	*	*
!	!	!	!	!	!	!LO:TX:t=P:problem=kreska pseudotaktowa	!	!	!	!	!
!	!	!	!	!	!	!LO:TX:t=3tium.:mod=	!	!	!	!	!
.	.	.	.	.	.	4A/	-na	-na	.	.	.
!	!	!	!	!	!	!LO:LB:g=original	!	!	!	!	!
=50-	=50-	=50-	=50-	=50-	=50-	=50-	=50-	=50-	=50-	=50-	=50-
*	*	*	*	*	*	*xywh-#118:7321,1217,6255,852	*	*	*	*	*
.	.	.	.	.	.	2F#X/	no-	no-	2.d\	no-	pa-
!	!	!	!	!	!	!LO:TX:t=P:problem=kreska pseudotaktowa	!	!	!	!	!
.	.	.	.	.	.	2D/	-bis	-bis	.	.	.
.	.	.	.	.	.	.	.	.	4c/	-bis	.
.	.	.	.	.	.	4G/	.	pa-	4B/	pa-	.
.	.	.	.	.	.	4Fny/	.	.	4c/	.	.
.	.	.	.	.	.	4F/	pa-	.	1d\	.	.
.	.	.	.	.	.	8E/L	.	.	.	.	.
.	.	.	.	.	.	8D/J	.	.	.	.	.
=51-	=51-	=51-	=51-	=51-	=51-	=51-	=51-	=51-	=51-	=51-	=51-
00r	.	.	2.g/	.	Do-	1E/	.	.	.	.	.
!	!	!	!	!	!	!	!	!	!LO:TX:t=P:problem=# below	!	!
!	!	!	!	!	!	!	!	!	!LO:TX:t=P:problem=kreska pseudotaktowa	!	!
.	.	.	.	.	.	.	.	.	2c#X/	.	.
.	.	.	4g/	.	-na	.	.	.	.	.	.
!	!	!	!	!	!	!LO:TX:t=P:problem=kreska pseudotaktowa	!	!	!	!	!
.	.	.	2f/	Do-	no-	1D/	-cem	-cem	2d\	-cem	-cem
!	!	!	!LO:TX:t=P:problem=kreska pseudotaktowa	!	!	!	!	!	!	!	!
.	.	.	2d/	-na	-bis	.	.	.	4.d\	Do-	Do-
!	!	!	!	!	!	!	!	!	!LO:TX:t=P:problem=kreska pseudotaktowa	!	!
.	.	.	.	.	.	.	.	.	8d\	-na	-na
=52-	=52-	=52-	=52-	=52-	=52-	=52-	=52-	=52-	=52-	=52-	=52-
.	.	.	2e/	no-	pa-	0r	.	.	2c/	no-	no-
.	.	.	2f/	-bis	.	.	.	.	2A/	-bis	-bis
.	.	.	2g/	pa-	.	.	.	.	2B/	pa-	pa-
*	*	*	*	*	*	*	*	*	*custos:d	*	*
!	!	!	!	!	!	!	!	!	!LO:TX:t=P:problem=kreska pseudotaktowa	!	!
!	!	!	!LO:TX:t=P:problem=kreska pseudotaktowa	!	!	!	!	!	!	!	!
.	.	.	2e/	.	.	.	.	.	2c/	.	.
!	!	!	!	!	!	!	!	!	!LO:LB:g=original	!	!
=53-	=53-	=53-	=53-	=53-	=53-	=53-	=53-	=53-	=53-	=53-	=53-
!LO:TX:t=P:problem=kreska pseudotaktowa	!	!	!	!	!	!	!	!	!	!	!
*	*	*	*	*	*	*	*	*	*xywh-#32:1119,3230,5954,747	*	*
1r	.	.	4f/	.	.	2.d\	Do-	Do-	4d\	.	.
.	.	.	4g/	.	.	.	.	.	4e\	.	.
.	.	.	4a\	.	.	.	.	.	4f\	.	.
!	!	!	!LO:TX:t=P:problem=kreska pseudotaktowa	!	!	!	!	!	!	!	!
.	.	.	4b\	.	.	4d\	-na	-na	4d\	.	.
2.A\	.	Do-	2.cc\	.	.	2c\	.	no-	1e\	.	.
!	!	!	!	!	!	!LO:TX:t=P:problem=kreska pseudotaktowa	!	!	!	!	!
.	.	.	.	.	.	2A/	no-	.	.	.	.
4A\	Do-	-na	4dd\	.	.	.	.	.	.	.	.
=54-	=54-	=54-	=54-	=54-	=54-	=54-	=54-	=54-	=54-	=54-	=54-
!	!	!	!LO:TX:t=P:problem=kreska pseudotaktowa	!	!	!	!	!	!LO:TX:t=P:problem=kreska pseudotaktowa	!	!
2G\	-na	no-	1ee\	-cem	-cem	2B\	-bis	-bis	1g\,	-cem.	-cem
!LO:TX:t=P:problem=kreska pseudotaktowa	!	!	!	!	!	!	!	!	!	!	!
*	*	*	*	*	*	*lig	*	*	*	*	*
2E\	no-	.	.	.	.	1c\	pa-	pa-	.	.	.
2F\	.	.	0r	.	.	.	.	.	2.a\	.	Do-
*	*	*	*	*	*	*col	*	*	*	*	*
2D/	-bis	-bis	.	.	.	2.d\	.	.	.	.	.
.	.	.	.	.	.	.	.	.	4a\	Do-	-na
*	*	*	*	*	*	*Xlig	*	*	*	*	*
=55-	=55-	=55-	=55-	=55-	=55-	=55-	=55-	=55-	=55-	=55-	=55-
*	*	*	*custos:b	*	*	*	*	*	*	*	*
!	!	!	!LO:TX:t=3tium:mod=	!	!	!	!	!	!	!	!
!	!	!	!LO:TX:t=P:problem=kreska pseudotaktowa	!	!	!	!	!	!	!	!
*	*ij	*ij	*	*	*	*	*	*	*	*	*
2E\	Do-	Do-	.	.	.	.	.	.	2g\	-na	no-
.	.	.	.	.	.	4c\	.	.	.	.	.
*	*	*	*	*	*	*Xcol	*	*	*	*	*
!LO:TX:t=P:problem=kreska pseudotaktowa	!	!	!	!	!	!LO:TX:t=P:problem=kreska pseudotaktowa	!	!	!LO:TX:t=P:problem=kreska pseudotaktowa	!	!
2C/	-na	-na	.	.	.	2c\	.	.	2e\	no-	-bis
2.D/	no-	no-	1r	.	.	4B\	.	.	2.f\	-bis	pa-
.	.	.	.	.	.	4A/	.	.	.	.	.
.	.	.	.	.	.	1A\	.	.	.	.	.
4C/	-bis	-bis	.	.	.	.	.	.	4e\	pa-	.
*	*Xij	*Xij	*	*	*	*	*	*	*	*	*
!	!	!	!LO:PB:g=original	!	!	!	!	!	!	!	!
=56-	=56-	=56-	=56-	=56-	=56-	=56-	=56-	=56-	=56-	=56-	=56-
*	*	*	*xywh-#193:941,497,6014,979	*	*	*	*	*	*	*	*
1BB/	pa-	pa-	1b\	Do-	Do-	.	.	.	1d\	.	.
!	!	!	!	!	!	!LO:TX:t=P:problem=# below	!	!	!	!	!
.	.	.	.	.	.	2G#X/	.	.	.	.	.
!LO:TX:t=P:problem=kreska pseudotaktowa	!	!	!	!	!	!LO:TX:t=P:problem=kreska pseudotaktowa	!	!	!	!	!
1AA/	-cem	-cem	1cc\	-na	-na	1A\	-cem	-cem	4c/	.	.
.	.	.	.	.	.	.	.	.	4d\	.	.
.	.	.	.	.	.	.	.	.	4e\	.	.
!	!	!	!	!	!	!	!	!	!LO:TX:t=P:problem=kreska pseudotaktowa	!	!
.	.	.	.	.	.	.	.	.	4f\	.	.
=57-	=57-	=57-	=57-	=57-	=57-	=57-	=57-	=57-	=57-	=57-	=57-
2.E\	Do-	Do-	2b\	no-	no-	0r	.	.	4g\	.	.
.	.	.	.	.	.	.	.	.	4f\	.	.
!	!	!	!LO:TX:t=P:problem=kreska pseudotaktowa	!	!	!	!	!	!	!	!
.	.	.	2g/	.	.	.	.	.	1e\	.	.
4E\	-na	-na	.	.	.	.	.	.	.	.	.
*custos:E	*	*	*	*	*	*	*	*	*	*	*
!LO:TX:t=P:problem=kreska pseudotaktowa	!	!	!	!	!	!	!	!	!	!	!
!LO:TX:t=3tium:mod=	!	!	!	!	!	!	!	!	!	!	!
1F\	no-	no-	2.a\	-bis	-bis	.	.	.	.	.	.
.	.	.	.	.	.	.	.	.	2d\	.	.
.	.	.	4b\	.	.	.	.	.	.	.	.
!LO:LB:g=original	!	!	!	!	!	!	!	!	!	!	!
=58-	=58-	=58-	=58-	=58-	=58-	=58-	=58-	=58-	=58-	=58-	=58-
*	*	*	*lig	*	*	*	*	*	*	*	*
!	!	!	!	!	!	!	!	!	!LO:TX:t=P:problem=kreska pseudotaktowa	!	!
*xywh-#285:7232,2408,5840,759	*	*	*	*	*	*	*	*	*	*	*
2E\	.	-bis	1cc\	pa-	pa-	2r	.	.	1e\	-cem	-cem
*	*	*	*	*	*	*	*ij	*ij	*	*	*
2C/	-bis	pa-	.	.	.	1A\	Do-	Do-	.	.	.
2D/	pa-	.	1b\	.	.	.	.	.	0r	.	.
2E\	.	.	.	.	.	2G#X/	-na	-na	.	.	.
!	!	!	!	!	!	!LO:TX:t=P:problem=kreska pseudotaktowa	!	!	!	!	!
!	!	!	!	!	!	!LO:TX:t=P:problem=# below	!	!	!	!	!
*	*	*	*Xlig	*	*	*	*	*	*	*	*
=59-	=59-	=59-	=59-	=59-	=59-	=59-	=59-	=59-	=59-	=59-	=59-
!	!	!	!LO:TX:t=P:problem=cezura na 1. linii	!	!	!	!	!	!	!	!
1F\	.	.	2a,\	-cem.	-cem	4A/	no-	no-	.	.	.
.	.	.	.	.	.	4B\	.	.	.	.	.
.	.	.	1a\	.	Do-	4c\	.	.	.	.	.
.	.	.	.	.	.	4d\	.	.	.	.	.
!LO:TX:t=P:problem=kreska pseudotaktowa	!	!	!	!	!	!	!	!	!	!	!
1E\	-cem	-cem	.	.	.	2e\	-bis	-bis	2.B/	Do-	Do-
!	!	!	!LO:TX:t=P:problem=# below	!	!	!	!	!	!	!	!
.	.	.	2g#X/	Do-	-na	2E/	pa-	pa-	.	.	.
.	.	.	.	.	.	.	.	.	4B/	-na	-na
=60-	=60-	=60-	=60-	=60-	=60-	=60-	=60-	=60-	=60-	=60-	=60-
!	!	!	!	!	!	!LO:TX:t=P:problem=kreska pseudotaktowa	!	!	!	!	!
2r	.	.	4a\	-na	no-	1A\	-cem	-cem	1c\	no-	no-
.	.	.	4b\	.	.	.	.	.	.	.	.
1AA/	Do-	Do-	4cc\	no-	.	.	.	.	.	.	.
.	.	.	4dd\	.	.	.	.	.	.	.	.
!	!	!	!	!	!	!	!	!	!LO:TX:t=P:problem=kreska pseudotaktowa	!	!
.	.	.	2.ee\	.	.	2r	.	.	1B/	-bis	-bis
!LO:TX:t=P:problem=# above	!	!	!	!	!	!	!	!	!	!	!
!LO:TX:t=P:problem=kreska pseudotaktowa	!	!	!	!	!	!	!	!	!	!	!
*	*	*	*	*	*	*	*Xij	*Xij	*	*	*
2GG#X/	-na	-na	.	.	.	4.B\	Do-	Do-	.	.	.
!	!	!	!LO:TX:t=P:problem=kreska pseudotaktowa	!	!	!	!	!	!	!	!
.	.	.	4dd\	.	.	.	.	.	.	.	.
.	.	.	.	.	.	8B\	-na	-na	.	.	.
=61-	=61-	=61-	=61-	=61-	=61-	=61-	=61-	=61-	=61-	=61-	=61-
*	*	*	*	*	*	*custos:B	*	*	*	*	*
!	!	!	!	!	!	!LO:TX:t=P:problem=kreska pseudotaktowa	!	!	!	!	!
4AA/	no-	no-	2cc\	-bis	-bis	1c\	no-	no-	0r	.	.
4BB/	.	.	.	.	.	.	.	.	.	.	.
4C/	.	.	4e/	.	pa-	.	.	.	.	.	.
4D/	.	.	4f/	.	.	.	.	.	.	.	.
!	!	!	!	!	!	!LO:LB:g=original	!	!	!	!	!
*	*	*	*	*	*	*xywh-#118:7372,1897,6204,771	*	*	*	*	*
4E\	.	.	4g/	pa-	.	2B\	.	.	.	.	.
4F\	.	.	4a\	.	.	.	.	.	.	.	.
!	!	!	!	!	!	!LO:SIC:v:s=2G	!	!	!	!	!
!	!	!	!	!	!	!LO:TX:t=P:problem=kreska pseudotaktowa	!	!	!	!	!
!	!	!	!	!	!	!LO:TX:t=P:problem=# below	!	!	!	!	!
1G\	.	.	4b\	.	.	2G#X/	-bis	-bis	.	.	.
!	!	!	!LO:TX:t=P:problem=kreska pseudotaktowa	!	!	!	!	!	!	!	!
.	.	.	4cc\	.	.	.	.	.	.	.	.
=62-	=62-	=62-	=62-	=62-	=62-	=62-	=62-	=62-	=62-	=62-	=62-
!	!	!	!	!	!	!	!	!	!LO:TX:t=P:problem=kreska pseudotaktowa	!	!
.	.	.	4dd\	.	.	2.A/	.	pa-	1r	.	.
.	.	.	4a\	.	.	.	.	.	.	.	.
!LO:TX:t=P:problem=kreska pseudotaktowa	!	!	!	!	!	!	!	!	!	!	!
2F\	.	-bis	2dd\	.	.	.	.	.	.	.	.
.	.	.	.	.	.	4B\	pa-	.	.	.	.
2.E\	-bis	pa-	1g\	-cem	-cem	4c\	.	.	2.e\	Do-	Do-
.	.	.	.	.	.	4G/	.	.	.	.	.
.	.	.	.	.	.	1c\	.	.	.	.	.
8D/L	pa-	.	.	.	.	.	.	.	4e\	-na	-na
8C/J	.	.	.	.	.	.	.	.	.	.	.
=63-	=63-	=63-	=63-	=63-	=63-	=63-	=63-	=63-	=63-	=63-	=63-
1D\	-cem	.	1r	.	.	.	.	.	1f\	.	no-
!	!	!	!	!	!	!LO:TX:t=P:problem=kreska pseudotaktowa	!	!	!	!	!
.	.	.	.	.	.	2B\	.	.	.	.	.
!LO:TX:t=P:problem=kreska pseudotaktowa	!	!	!	!	!	!LO:TX:t=P:problem=cezura na 1. linii	!	!	!	!	!
1C/	.	-cem	2r	.	.	2c,\	-cem	-cem	2e\	no-	.
!	!	!	!	!	!	!	!	!	!LO:TX:t=P:problem=kreska pseudotaktowa	!	!
*	*	*	*	*ij	*ij	*	*ij	*ij	*	*	*
.	.	.	1a\	no	pa-	4.A/	Do-	Do-	2c/	-bis	-bis
.	.	.	.	.	.	8A/	-na	-na	.	.	.
=64-	=64-	=64-	=64-	=64-	=64-	=64-	=64-	=64-	=64-	=64-	=64-
0r	.	.	.	.	.	1B-X\	no-	no-	2.d\	pa-	pa-
!	!	!	!LO:TX:t=P:problem=kreska pseudotaktowa	!	!	!	!	!	!	!	!
.	.	.	2g/	bis	.	.	.	.	.	.	.
.	.	.	.	.	.	.	.	.	4e\	.	.
*	*	*	*	*	*	*	*	*	*lig	*	*
.	.	.	4a\	pa-	.	2A/	.	.	1f\	.	.
.	.	.	4a\	-cem	-cem	.	.	.	.	.	.
*	*	*	*	*Xij	*Xij	*	*	*	*	*	*
!	!	!	!	!	!	!LO:TX:t=P:problem=kreska pseudotaktowa	!	!	!	!	!
.	.	.	1d/	Do-	Do-	2F/	-bis	-bis	.	.	.
=65-	=65-	=65-	=65-	=65-	=65-	=65-	=65-	=65-	=65-	=65-	=65-
*	*	*	*	*	*	*	*	*	*custos:f	*	*
!	!	!	!	!	!	!	!	!	!LO:TX:t=P:problem=kreska pseudotaktowa	!	!
1r	.	.	.	.	.	2G/	pa-	pa-	1e\	.	.
!	!	!	!LO:TX:t=P:problem=# above	!	!	!	!	!	!	!	!
.	.	.	2c#X/	-na	-na	2A/	.	.	.	.	.
!	!	!	!	!	!	!	!	!	!LO:LB:g=original	!	!
!	!	!	!LO:TX:t=P:problem=kreska pseudotaktowa	!	!	!	!	!	!	!	!
*	*	*	*	*	*	*	*	*	*Xlig	*	*
!	!	!	!	!	!	!LO:TX:t=P:problem=kreska pseudotaktowa	!	!	!	!	!
*	*	*	*	*	*	*	*	*	*xywh-#32:1152,3885,5996,999	*	*
2r	.	.	4d/	no-	no-	1D/	-cem	-cem	1f\	.	.
.	.	.	4e/	.	.	.	.	.	.	.	.
1D\	Do-	Do-	4f/	.	.	.	.	.	.	.	.
*	*	*	*custos:a	*	*	*	*	*	*	*	*
!	!	!	!LO:TX:t=P:problem=kreska pseudotaktowa	!	!	!	!	!	!	!	!
.	.	.	4g/	.	.	.	.	.	.	.	.
!	!	!	!LO:LB:g=original	!	!	!	!	!	!	!	!
=66-	=66-	=66-	=66-	=66-	=66-	=66-	=66-	=66-	=66-	=66-	=66-
*	*	*	*xywh-#193:999,1324,5918,883	*	*	*	*	*	*	*	*
.	.	.	2.a\	.	.	1r	.	.	2e\	.	-cem
!LO:TX:t=P:problem=# below	!	!	!	!	!	!	!	!	!	!	!
!LO:TX:t=P:problem=kreska pseudotaktowa	!	!	!	!	!	!	!	!	!	!	!
2C#X/	-na	-na	.	.	.	.	.	.	1e\	-cem	Do-
.	.	.	4g/	-bis	-bis	.	.	.	.	.	.
*	*	*	*	*	*	*	*Xij	*Xij	*	*	*
4D/	no-	no-	1f/	pa-	pa-	2.A/	Do-	Do-	.	.	.
4E\	.	.	.	.	.	.	.	.	.	.	.
!	!	!	!	!	!	!	!	!	!LO:TX:t=P:problem=kreska pseudotaktowa	!	!
4F\	.	.	.	.	.	.	.	.	2d\	Do-	-na
4G\	.	.	.	.	.	4A/	-na	-na	.	.	.
=67-	=67-	=67-	=67-	=67-	=67-	=67-	=67-	=67-	=67-	=67-	=67-
!	!	!	!LO:TX:t=P:problem=kreska pseudotaktowa	!	!	!	!	!	!	!	!
1A\	.	.	1e/	-cem	-cem	1c\	.	no-	4c/	-na	no-
.	.	.	.	.	.	.	.	.	4d\	.	.
.	.	.	.	.	.	.	.	.	4e\	no-	.
.	.	.	.	.	.	.	.	.	4f\	.	.
2G\	.	.	1r	.	.	2B\	no-	.	1g\	.	.
!LO:TX:t=P:problem=kreska pseudotaktowa	!	!	!	!	!	!	!	!	!	!	!
2E\	-bis	-bis	.	.	.	2G/	.	-bis	.	.	.
=68-	=68-	=68-	=68-	=68-	=68-	=68-	=68-	=68-	=68-	=68-	=68-
1F\	pa-	pa-	2r	.	.	2.A/	-bis	pa-	4c/	.	.
.	.	.	.	.	.	.	.	.	4B/	.	.
.	.	.	1a\	Do-	Do-	.	.	.	4c/	-bis	-bis
!	!	!	!	!	!	!	!	!	!LO:TX:t=P:problem=kreska pseudotaktowa	!	!
.	.	.	.	.	.	4B\	pa-	.	4d\	.	.
*custos:AA	*	*	*	*	*	*	*	*	*	*	*
!LO:TX:t=P:problem=kreska pseudotaktowa	!	!	!	!	!	!	!	!	!	!	!
1E\	-cem	-cem	.	.	.	2c\	.	.	1e\	pa-	pa-
!	!	!	!LO:TX:t=P:problem=kreska pseudotaktowa	!	!	!	!	!	!	!	!
.	.	.	2g#X/	-na	-na	2B\	.	.	.	.	.
!LO:LB:g=original	!	!	!	!	!	!	!	!	!	!	!
=69-	=69-	=69-	=69-	=69-	=69-	=69-	=69-	=69-	=69-	=69-	=69-
!	!	!	!	!	!	!	!	!	!LO:TX:t=P:problem=kreska pseudotaktowa	!	!
*xywh-#285:7204,3002,6384,1132	*	*	*	*	*	*	*	*	*	*	*
2.AA/	Do-	Do-	4a\	.	no-	2A/	.	-[cem	1c\	-cem	-cem
.	.	.	4b\	.	.	.	.	.	.	.	.
.	.	.	4cc\	no-	.	1A\	.	Do-	.	.	.
4AA/	-na	-na	4a\	.	.	.	.	.	.	.	.
!LO:TX:t=P:problem=kreska pseudotaktowa	!	!	!	!	!	!	!	!	!	!	!
1BB-X/	no-	no-	1dd\	.	.	.	.	.	2r	.	.
!	!	!	!	!	!	!LO:N:acc=-	!	!	!	!	!
.	.	.	.	.	.	2Gn/	.	.	4.d\	Do-	Do-
!	!	!	!	!	!	!	!	!	!LO:TX:t=P:problem=kreska pseudotaktowa	!	!
.	.	.	.	.	.	.	.	.	8d\	-na	-na
=70-	=70-	=70-	=70-	=70-	=70-	=70-	=70-	=70-	=70-	=70-	=70-
2AA/	.	.	2cc\	.	-bis	2A/	.	.	1f\	no-	no-
!LO:TX:t=P:problem=kreska pseudotaktowa	!	!	!	!	!	!	!	!	!	!	!
2FF/	-bis	-bis	1dd\	-bis	pa-	2A/	.	-na	.	.	.
2GG/	.	pa-	.	.	.	2B-X\	.	no-	2e\	-bis	.
!	!	!	!LO:TX:t=P:problem=# above	!	!	!	!	!	!LO:TX:t=P:problem=kreska pseudotaktowa	!	!
2AA/	pa-	.	2cc#X\	pa-	.	4A/	.	.	2e\	.	-bis
.	.	.	.	.	.	4G/	.	.	.	.	.
=71-	=71-	=71-	=71-	=71-	=71-	=71-	=71-	=71-	=71-	=71-	=71-
4D/	.	.	2dd\	-cem	-cem	4F/	.	.	2.d\	pa-	pa-
*	*	*	*	*	*	*custos:D	*	*	*	*	*
4E\	.	.	.	.	.	4E/	.	.	.	.	.
!	!	!	!	!	!	!LO:LB:g=original	!	!	!	!	!
!	!	!	!LO:TX:t=P:problem=kreska pseudotaktowa	!	!	!	!	!	!	!	!
*	*	*	*	*	*	*xywh-#118:7352,2466,6447,873	*	*	*	*	*
4F\	.	.	2r	.	.	1D/	.	.	.	.	.
!LO:TX:t=P:problem=kreska pseudotaktowa	!	!	!	!	!	!	!	!	!	!	!
4G\	.	.	.	.	.	.	.	.	4e\	.	.
2.A\	.	.	1r	.	.	.	.	.	2f\	.	.
!	!	!	!	!	!	!	!	!	!LO:TX:t=P:problem=kreska pseudotaktowa	!	!
.	.	.	.	.	.	2C#X/	.	.	2e\	.	.
4G\	.	.	.	.	.	.	.	.	.	.	.
=72-	=72-	=72-	=72-	=72-	=72-	=72-	=72-	=72-	=72-	=72-	=72-
!	!	!	!	!	!	!	!	!	!LO:SIC:v:s=2.d	!	!
4F\	.	.	2r	.	.	4D/	.	.	2.c/	.	.
4E\	.	.	.	.	.	4E/	.	.	.	.	.
!LO:TX:t=P:problem=kreska pseudotaktowa	!	!	!	!	!	!	!	!	!	!	!
2D/	.	.	1d/	Do-	Do-	4F/	.	.	.	.	.
!	!	!	!	!	!	!	!	!	!LO:SIC:v:s=4e	!	!
.	.	.	.	.	.	4G/	.	.	4d\	.	.
1AA/	.	.	.	.	.	0A\	.	-bis	2f\	.	.
!	!	!	!LO:TX:t=P:problem=# above	!	!	!	!	!	!	!	!
!	!	!	!LO:TX:t=P:problem=kreska pseudotaktowa	!	!	!	!	!	!LO:TX:t=P:problem=kreska pseudotaktowa	!	!
.	.	.	2c#X/	-na	-na	.	.	.	2e\	.	.
=73-	=73-	=73-	=73-	=73-	=73-	=73-	=73-	=73-	=73-	=73-	=73-
0D\	.	.	4d/	no-	no-	.	.	.	2f\	.	.
.	.	.	4e/	.	.	.	.	.	.	.	.
!	!	!	!	!	!	!	!	!	!LO:TX:t=P:problem=kreska pseudotaktowa	!	!
.	.	.	4f/	.	.	.	.	.	2d\	.	.
.	.	.	4g/	.	.	.	.	.	.	.	.
.	.	.	4a\	.	-bis	1A\	.	pa]-	1.f\	.	.
.	.	.	4d/	-bis	.	.	.	.	.	.	.
.	.	.	1dd\	pa-	pa-	.	.	.	.	.	.
=74-	=74-	=74-	=74-	=74-	=74-	=74-	=74-	=74-	=74-	=74-	=74-
!LO:SIC:s=0AA;	!	!	!	!	!	!LO:SIC:s=0A;	!	!	!	!	!
0AA/l	-cem	-cem	.	.	.	0A\l	-cem	-cem	.	.	.
.	.	.	4cc#X\	.	.	.	.	.	4e\	cem.	.
!	!	!	!LO:TX:t=P:problem=kreska pseudotaktowa	!	!	!	!	!	!	!	!
.	.	.	4b\	.	.	.	.	.	4d\	.	.
!	!	!	!LO:TX:t=P:problem=# above	!	!	!	!	!	!	!	!
!	!	!	!LO:SIC:s=1cc#;	!	!	!	!	!	!	!	!
.	.	.	1cc#X\l	-cem	-cem	.	.	.	1e\;<l	.	-cem
!LO:TX:a:mod=:t=A M D S.\nB. V. M H.	!	!	!LO:TX:a:mod=:t=A M O S \nM. M P. R\n1669	!	!	!	!	!	!	!	!
==	==	==	==	==	==	==	==	==	==	==	==
*-	*-	*-	*-	*-	*-	*-	*-	*-	*-	*-	*-
!!!system-decoration: [(*)]
!!!RDF**kern: > = above
!!!RDF**kern: < = below
!!LO:MO:ori
!!!RDF**kern: l = terminal long
!!LO:MO:end
!!!filter-modern: sic -sq | extract -k 1,3,4,2 | shed -e "s/^(\d+[\/\\]right)/$1yy/I;s/^(\d+[\/\\]left)/$1yy/I" | shed -k -e "s/LO:N:acc/LO:n:acc:/L" | shed -e "s/TX(.*):t=P:/tx$1:t=P:/LG" | shed -e "s/yy//" | shed -e "s/^custos:/Xcustos:/I" | shed -k -e "s/r[a-gA-G]+/r/D" | shed -k -e "s/[<>]//g" | shed -e "s/-//B" | autostem -r | tie -s  | modori -m | humtr -p | pextract -k 1,3,4,2
!!!ENC: Kamil Watkowski
!!!END: 2021-02-28
!!!EED: Leszek Kubiak
!!!EEV: 2021-03-12
!!!ENC-modern: Andrzej Borzym
!!!END-modern: 2022-07-22
!!!ENC-iiif: Konrad Tyszka
!!!END-iiif: 2022-09-01
